X: 2
T: The Bank Of Ireland
R: reel
M: 4/4
L: 1/8
K: Dmix
ed|cA~A2 cAAG|EGDG EGD2|cA~A2 cABG|Add^c dfed|
c2AB cAAG|EGDG EGD2|cA~A2 cABG|Add^c d2de||
~f2fd ~e2e^c|dfed ^cAag|~f2fd efge|age^c d2cd|
eaag efge|dfed ^cAG2|Add^c defg|afge d2|]


Tune 320	Setting 25756

